!!!OTL: Die Bluthochzeit Et sauss e Medchi haenderm Schlamchi,
!!!ARE: Europa, Suedosteuropa, Rumaenien, Siebenbuergen, Bistritz, Weisskirch
!!!YOR: 2, S. 160
!!    1931 gedruckt in Herrmannstadt
!!!SCT: Q0046B
!!!YEM: Copyright 1995, estate of Helmut Schaffrath.
**kern
*ICvox
*Ivox
*M3/4
*k[b-]
*F:
{8f
8a
=1
4.cc
8dd
8cc
8b-
=2
4.a
8f
4cc
=3
4.b-
8a
8b-
8a
=4
8g
8g
4r}
{8f
8g
=5
4.a
8b-
8a
8g
=6
4.f
8g
4a
=7
4.g
8f
4g
=8
2f}
==
!!!AGN: Ballade, Entfuehrung, Mord, Vergeltung; geistlich
!! Melodie gehoert zu einem geistlichen Lied.
!!!ONB: ESAC (Essen Associative Code) Database: BALLADE
!!!AMT: simple triple
!!!AIN: vox
!!!EED: Helmut Schaffrath
!!!EEV: 1.0
*-
